!!!COM:	Bach, Johann Sebastian
!!!CDT:	1685/02/21/-1750/07/28/
!!!OTL@@DE:	Es ist das Heil uns kommen her
!!!SCT:	BWV 86/6
!!!PC#:	4
!!!AGN:	chorale
**kern	**kern	**kern	**kern
*ICvox	*ICvox	*ICvox	*ICvox
*Ibass	*Itenor	*Ialto	*Isoprn
*I"Bass	*I"Tenor	*I"Alto	*I"Soprano
*>[A,A,B]	*>[A,A,B]	*>[A,A,B]	*>[A,A,B]
*>norep[A,B]	*>norep[A,B]	*>norep[A,B]	*>norep[A,B]
*>A	*>A	*>A	*>A
*clefF4	*clefGv2	*clefG2	*clefG2
*k[f#c#g#d#]	*k[f#c#g#d#]	*k[f#c#g#d#]	*k[f#c#g#d#]
*E:	*E:	*E:	*E:
*M4/4	*M4/4	*M4/4	*M4/4
*met(c)	*met(c)	*met(c)	*met(c)
*MM100	*MM100	*MM100	*MM100
4E	4e	4g#	4b
=1	=1	=1	=1
4D#	4f#	8f#L	4b
.	.	8g#J	.
4BB	8eL	4a	4b
.	8d#J	.	.
4E	4e	4g#	4b
8F#L	8AL	4f#	4dd
8G#J	8BJ	.	.
=2	=2	=2	=2
4A	16c#LL	8e	4cc#
.	16dJJ	.	.
.	4e	4a	.
4E	.	.	4b
.	8d	8g#	.
4AA;	4c#;	4e;	4a;
4D#	4B	4f#	4b
=3	=3	=3	=3
8EL	4.B	4e	4g#
8F#J	.	.	.
4G#	.	8eL	8eL
.	8A	8d#J	8f#J
4C#	4G#	4e	4g#
8F#L	4F#	4c#	4a#
8EJ	.	.	.
=4	=4	=4	=4
8D#L	8F#	8f#L	4b
16C#L	4B	16eL	.
16BBJJ	.	16d#JJ	.
4F#	.	4e	4cc#
.	8A#	.	.
4BB;	4F#;	4d#;	4b;
=:|!	=:|!	=:|!	=:|!
*>B	*>B	*>B	*>B
4E	4G#	8eL	4b
.	.	8f#J	.
=5	=5	=5	=5
4C#	4c#	8g#L	4ee
.	.	8a#J	.
8D#L	4F#	4b	4dd#
8EJ	.	.	.
4F#	4f#	4a#	4cc#
4B	4f#	4b	4dd#
=6	=6	=6	=6
8G#L	4B	4b	8eeL
8EJ	.	.	8dd#J
4F#	4A#	4f#	4cc#
4BB;	4d#;	4f#;	4b;
4E	4e	4g#	4b
=7	=7	=7	=7
4G#	4B	8eL	4ee
.	.	8f#J	.
4E	4e	4g#	4b
8AnXL	4e	4a	4cc#
8BJ	.	.	.
4c#	4c#	8eL	8g#L
.	.	8f#J	8aJ
=8	=8	=8	=8
4E#	4d	4g#	4b
4F#	4c#	4f#	4a
4C#;	4c#;	4e#;	4g#;
4E	[4B	4e	4g#
=9	=9	=9	=9
4BB	4B]	4d#	4f#
8C#L	4e	4c#	4a
8D#J	.	.	.
4E	4e	4B	4g#
4BB	8d#L	4B	4f#
.	8BJ	.	.
=10	=10	=10	=10
4AA#	2F#	4c#	4c#
4BB	.	4B	4d#
4EE;	4G#;	4B;	4e;
==	==	==	==
*-	*-	*-	*-
!!!hum2abc: -Q ''
!!!title: @{PC#}. @{OTL@@DE}
!!!YOR1: 371 vierstimmige Choralges&auml;nge von Johann Sebastian Bach, 
!!!YOR2: 4th ed. by Alfred D&ouml;rffel (Leipzig: Breitkopf und H&auml;rtel, 
!!!YOR2: c.1875). 178 pp. Plate "V.A.10".  reprint: J.S. Bach, 371 Four-Part 
!!!YOR4: Chorales (New York: Associated Music Publishers, Inc., c.1940).
!!!SMS: B&H, 4th ed, Alfred D&ouml;rffel, c.1875, plate V.A.10
!!!EED:  Craig Stuart Sapp
!!!EEV:  2009/05/22
